view/frontend/web/svg/awesomeicons6/solid/fish.svg

<svg xmlns="http://www.w3.org/2000/svg" fill="currentColor" viewBox="0 0 576 512"><!--! Font Awesome Free 6.1.1 by @fontawesome - https://fontawesome.com License - https://fontawesome.com/license/free (Icons: CC BY 4.0, Fonts: SIL OFL 1.1, Code: MIT License) Copyright 2022 Fonticons, Inc. --><path d="M180.5 141.5C219.7 108.5 272.6 80 336 80C399.4 80 452.3 108.5 491.5 141.5C530.5 174.5 558.3 213.1 572.4 241.3C577.2 250.5 577.2 261.5 572.4 270.7C558.3 298 530.5 337.5 491.5 370.5C452.3 403.5 399.4 432 336 432C272.6 432 219.7 403.5 180.5 370.5C164.3 356.7 150 341.9 137.8 327.3L48.12 379.6C35.61 386.9 19.76 384.9 9.474 374.7C-.8133 364.5-2.97 348.7 4.216 336.1L50 256L4.216 175.9C-2.97 163.3-.8133 147.5 9.474 137.3C19.76 127.1 35.61 125.1 48.12 132.4L137.8 184.7C150 170.1 164.3 155.3 180.5 141.5L180.5 141.5zM416 224C398.3 224 384 238.3 384 256C384 273.7 398.3 288 416 288C433.7 288 448 273.7 448 256C448 238.3 433.7 224 416 224z"/></svg>

<svg xmlns="http://www.w3.org/2000/svg" fill="currentColor" viewBox="0 0 576 512"><!--! Font Awesome Free 6.4.0 by @fontawesome - https://fontawesome.com License - https://fontawesome.com/license/free (Icons: CC BY 4.0, Fonts: SIL OFL 1.1, Code: MIT License) Copyright 2023 Fonticons, Inc. --><path d="M180.5 141.5C219.7 108.5 272.6 80 336 80s116.3 28.5 155.5 61.5c39.1 33 66.9 72.4 81 99.8c4.7 9.2 4.7 20.1 0 29.3c-14.1 27.4-41.9 66.8-81 99.8C452.3 403.5 399.4 432 336 432s-116.3-28.5-155.5-61.5c-16.2-13.7-30.5-28.5-42.7-43.1L48.1 379.6c-12.5 7.3-28.4 5.3-38.7-4.9S-3 348.7 4.2 336.1L50 256 4.2 175.9c-7.2-12.6-5-28.4 5.3-38.6s26.1-12.2 38.7-4.9l89.7 52.3c12.2-14.6 26.5-29.4 42.7-43.1zM448 256a32 32 0 1 0 -64 0 32 32 0 1 0 64 0z"/></svg>
